X: 184
T:Whirligig
M:6/8
L:1/8
A:English
K:F
d2 d f>ed|c2 A c2 c| d2 d f>ed| cAA A2 A|d2 d f>ed |c2 A c2 c |d2 d f>ed | cAA A2 d|| c2 B c>BA|BGG G2 G|AAA A>Bc|dDD D2 d|c2 B c>BA|BGG G2 G|AAA A>Bc| dDD D2:|

